assets/img/i-d-impulsamos.svg

<svg width="90" height="90" viewBox="0 0 90 90" fill="none" xmlns="http://www.w3.org/2000/svg">
<path d="M4.15602 74.2451C6.09482 74.2451 7.66653 72.5359 7.66653 70.4275C7.66653 68.3191 6.09482 66.6099 4.15602 66.6099C2.21722 66.6099 0.645508 68.3191 0.645508 70.4275C0.645508 72.5359 2.21722 74.2451 4.15602 74.2451Z" fill="#00C4D1"/>
<path d="M86.1078 23.3802C87.3987 23.3802 88.4451 22.2422 88.4451 20.8385C88.4451 19.4347 87.3987 18.2967 86.1078 18.2967C84.817 18.2967 83.7705 19.4347 83.7705 20.8385C83.7705 22.2422 84.817 23.3802 86.1078 23.3802Z" fill="#00C4D1"/>
<path d="M79.6775 14.4791C81.9378 14.4791 83.7701 12.4865 83.7701 10.0286C83.7701 7.5706 81.9378 5.57802 79.6775 5.57802C77.4173 5.57802 75.585 7.5706 75.585 10.0286C75.585 12.4865 77.4173 14.4791 79.6775 14.4791Z" fill="#9D3BFF"/>
<path d="M50.6752 81.0099H45.5368C44.1586 81.0073 42.8378 80.4101 41.8642 79.3495C40.8906 78.2888 40.3437 76.8514 40.3438 75.3528V32.8253C40.3437 31.3266 40.8906 29.8892 41.8642 28.8286C42.8378 27.7679 44.1586 27.1708 45.5368 27.1681H50.6752C52.0533 27.1708 53.3741 27.7679 54.3478 28.8286C55.3214 29.8892 55.8682 31.3266 55.8682 32.8253V75.3528C55.8682 76.8514 55.3214 78.2888 54.3478 79.3495C53.3741 80.4101 52.0533 81.0073 50.6752 81.0099ZM45.5368 32.2319C45.3993 32.2319 45.2674 32.2913 45.1702 32.397C45.073 32.5027 45.0184 32.6461 45.0184 32.7956V75.3231C45.0183 75.4735 45.0727 75.618 45.1696 75.7252C45.2666 75.8325 45.3984 75.8941 45.5368 75.8967H50.6752C50.8135 75.8941 50.9454 75.8325 51.0423 75.7252C51.1393 75.618 51.1936 75.4735 51.1936 75.3231V32.7956C51.1936 32.6461 51.139 32.5027 51.0418 32.397C50.9445 32.2913 50.8127 32.2319 50.6752 32.2319H45.5368Z" fill="#00C4D1"/>
<path d="M69.2094 81.0099H64.08C62.7011 81.0073 61.3793 80.4104 60.4042 79.3501C59.4292 78.2897 58.8803 76.8523 58.8779 75.3527V23.5483C58.8803 22.0488 59.4292 20.6114 60.4042 19.551C61.3793 18.4907 62.7011 17.8938 64.08 17.8912H69.2094C70.5891 17.8912 71.9122 18.4872 72.8878 19.5481C73.8634 20.6091 74.4115 22.048 74.4115 23.5483V75.3527C74.4115 76.8531 73.8634 78.292 72.8878 79.3529C71.9122 80.4139 70.5891 81.0099 69.2094 81.0099ZM64.08 22.9747C63.9417 22.9773 63.8099 23.0389 63.7129 23.1462C63.6159 23.2535 63.5616 23.3979 63.5616 23.5483V75.3527C63.5616 75.5032 63.6159 75.6476 63.7129 75.7549C63.8099 75.8622 63.9417 75.9238 64.08 75.9264H69.2094C69.3493 75.9264 69.4834 75.8659 69.5824 75.7584C69.6813 75.6508 69.7369 75.5049 69.7369 75.3527V23.5483C69.7369 23.3962 69.6813 23.2503 69.5824 23.1427C69.4834 23.0352 69.3493 22.9747 69.2094 22.9747H64.08Z" fill="#9D3BFF"/>
<path d="M32.1313 81.0099H26.9929C25.6195 80.9995 24.3057 80.3988 23.3379 79.339C22.3702 78.2792 21.8271 76.8463 21.8271 75.3528V42.8934C21.8271 41.3948 22.374 39.9573 23.3476 38.8967C24.3212 37.8361 25.642 37.2389 27.0202 37.2363H32.1586C33.5256 37.2571 34.8302 37.8622 35.7901 38.9209C36.75 39.9796 37.2881 41.4066 37.2879 42.8934V75.3528C37.288 76.8446 36.7462 78.2761 35.7804 79.3356C34.8146 80.3951 33.5031 80.9969 32.1313 81.0099ZM26.9929 42.3198C26.8546 42.3224 26.7227 42.384 26.6257 42.4913C26.5288 42.5985 26.4745 42.743 26.4745 42.8934V75.3528C26.4745 75.5032 26.5288 75.6476 26.6257 75.7549C26.7227 75.8622 26.8546 75.9238 26.9929 75.9264H32.1313C32.2696 75.9238 32.4015 75.8622 32.4984 75.7549C32.5954 75.6476 32.6497 75.5032 32.6497 75.3528V42.8934C32.6497 42.743 32.5954 42.5985 32.4984 42.4913C32.4015 42.384 32.2696 42.3224 32.1313 42.3198H26.9929Z" fill="#9D3BFF"/>
<path d="M80.2597 89.5055H14.7787C14.1588 89.5055 13.5643 89.2377 13.126 88.761C12.6877 88.2844 12.4414 87.6379 12.4414 86.9637C12.4414 86.2896 12.6877 85.6431 13.126 85.1664C13.5643 84.6898 14.1588 84.422 14.7787 84.422H80.2597C80.8796 84.422 81.4741 84.6898 81.9124 85.1664C82.3508 85.6431 82.597 86.2896 82.597 86.9637C82.597 87.6379 82.3508 88.2844 81.9124 88.761C81.4741 89.2377 80.8796 89.5055 80.2597 89.5055Z" fill="#9D3BFF"/>
<path d="M11.2681 43.7242C10.8142 43.7265 10.3696 43.5846 9.98892 43.3158C9.60825 43.0469 9.30815 42.663 9.12551 42.2111C8.94288 41.7593 8.88568 41.2592 8.96095 40.7724C9.03623 40.2857 9.2407 39.8335 9.5492 39.4714L35.2687 8.95055C35.6571 8.4895 36.1881 8.2003 36.7602 8.13826C37.3324 8.07623 37.9055 8.24571 38.3699 8.61429L49.5563 17.456L62.1705 2.62088C62.6013 2.19495 63.1628 1.95922 63.745 1.95984C64.3273 1.96046 64.8883 2.19738 65.3184 2.62422C65.7484 3.05107 66.0165 3.63709 66.0701 4.26758C66.1237 4.89807 65.959 5.52761 65.6082 6.03297L51.5753 22.5692C51.1861 23.0261 50.6563 23.3118 50.0863 23.3719C49.5163 23.4321 48.9458 23.2626 48.4831 22.8956L37.2877 14.0637L12.996 42.9033C12.7759 43.1627 12.5087 43.3695 12.2112 43.5108C11.9138 43.6521 11.5926 43.7248 11.2681 43.7242Z" fill="#9D3BFF"/>
<path d="M65.0625 13.2132C64.4473 13.2054 63.8598 12.9341 63.4273 12.4583C62.9949 11.9825 62.7524 11.3404 62.7524 10.6714V5.57802H56.8773C56.2575 5.57802 55.663 5.31023 55.2246 4.83356C54.7863 4.35689 54.54 3.71038 54.54 3.03626C54.54 2.36215 54.7863 1.71564 55.2246 1.23897C55.663 0.762298 56.2575 0.494507 56.8773 0.494507H65.0625C65.6824 0.494507 66.2769 0.762298 66.7152 1.23897C67.1535 1.71564 67.3998 2.36215 67.3998 3.03626V10.6714C67.3998 11.3455 67.1535 11.9921 66.7152 12.4687C66.2769 12.9454 65.6824 13.2132 65.0625 13.2132Z" fill="#9D3BFF"/>
</svg>

<svg xmlns="http://www.w3.org/2000/svg" width="90" height="90" fill="none" xmlns:v="https://vecta.io/nano"><path d="M4.156 74.245c1.94 0 3.5-1.7 3.5-3.818s-1.57-3.827-3.5-3.827-3.5 1.72-3.5 3.828 1.572 3.818 3.5 3.818zM86.108 23.38c1.3 0 2.337-1.138 2.337-2.542s-1.046-2.542-2.337-2.542-2.337 1.138-2.337 2.542 1.046 2.542 2.337 2.542z" fill="#00c4d1"/><path d="M79.678 14.48c2.26 0 4.093-1.993 4.093-4.45s-1.832-4.45-4.093-4.45-4.093 1.993-4.093 4.45 1.832 4.45 4.093 4.45z" fill="#9d3bff"/><path d="M50.675 81h-5.138c-1.378-.003-2.7-.6-3.673-1.66s-1.52-2.498-1.52-3.997V32.825c0-1.5.547-2.936 1.52-3.997s2.294-1.658 3.673-1.66h5.138c1.378.003 2.7.6 3.673 1.66s1.52 2.498 1.52 3.997v42.528c0 1.5-.547 2.936-1.52 3.997s-2.294 1.658-3.673 1.66zm-5.138-48.778a.5.5 0 0 0-.367.165.59.59 0 0 0-.152.399v42.527a.6.6 0 0 0 .151.402.51.51 0 0 0 .367.171h5.138a.51.51 0 0 0 .367-.171.6.6 0 0 0 .151-.402V32.796a.59.59 0 0 0-.152-.399.5.5 0 0 0-.367-.165h-5.138z" fill="#00c4d1"/><g fill="#9d3bff"><path d="M69.2 81h-5.13c-1.38-.003-2.7-.6-3.676-1.66s-1.524-2.498-1.526-3.997V23.548c.002-1.5.55-2.937 1.526-3.997s2.297-1.657 3.676-1.66h5.13c1.38 0 2.703.596 3.678 1.657s1.524 2.5 1.524 4v51.804c0 1.5-.548 2.94-1.524 4S70.6 81 69.2 81zm-5.13-58.035a.51.51 0 0 0-.367.172.6.6 0 0 0-.151.402v51.804a.6.6 0 0 0 .151.402.51.51 0 0 0 .367.171h5.13c.14 0 .274-.06.373-.168a.6.6 0 0 0 .154-.406V23.548a.6.6 0 0 0-.154-.406c-.1-.108-.233-.168-.373-.168h-5.13zM32.13 81h-5.138c-1.373-.01-2.687-.6-3.655-1.67s-1.5-2.493-1.5-3.986v-32.46c0-1.5.547-2.936 1.52-3.997s2.294-1.658 3.673-1.66h5.138c1.367.02 2.672.626 3.632 1.685s1.498 2.486 1.498 3.972v32.46c0 1.492-.542 2.923-1.508 3.983s-2.277 1.66-3.65 1.674zm-5.138-38.7a.51.51 0 0 0-.367.172.6.6 0 0 0-.151.402v32.46a.6.6 0 0 0 .151.402.51.51 0 0 0 .367.171h5.138a.51.51 0 0 0 .367-.171.6.6 0 0 0 .151-.402v-32.46a.6.6 0 0 0-.151-.402.51.51 0 0 0-.367-.172h-5.138zM80.26 89.506H14.78c-.62 0-1.214-.268-1.653-.745s-.685-1.123-.685-1.797a2.66 2.66 0 0 1 .685-1.797c.438-.477 1.033-.744 1.653-.744h65.48a2.25 2.25 0 0 1 1.653.744c.44.476.685 1.123.685 1.797s-.246 1.32-.685 1.797-1.033.745-1.653.745zM11.268 43.724c-.454.002-.9-.14-1.28-.408a2.49 2.49 0 0 1-.863-1.105 2.74 2.74 0 0 1-.165-1.44 2.61 2.61 0 0 1 .588-1.3L35.27 8.95a2.28 2.28 0 0 1 1.49-.812 2.2 2.2 0 0 1 1.61.476l11.186 8.842L62.17 2.62c.43-.426.992-.662 1.575-.66s1.143.238 1.573.664a2.63 2.63 0 0 1 .752 1.643c.054.63-.1 1.26-.462 1.765L51.575 22.57c-.4.457-.92.743-1.5.803a2.2 2.2 0 0 1-1.603-.476l-11.195-8.832-24.292 28.84a2.36 2.36 0 0 1-.785.608 2.2 2.2 0 0 1-.943.213z"/><path d="M65.063 13.213a2.25 2.25 0 0 1-1.635-.755 2.66 2.66 0 0 1-.675-1.787V5.578h-5.875c-.62 0-1.214-.268-1.653-.744a2.66 2.66 0 0 1-.685-1.797 2.66 2.66 0 0 1 .685-1.797c.438-.477 1.033-.744 1.653-.744h8.185c.62 0 1.214.268 1.653.744a2.66 2.66 0 0 1 .685 1.797v7.635a2.66 2.66 0 0 1-.685 1.797c-.438.477-1.033.745-1.653.745z"/></g></svg>
